X:1
T:Towie Castle
T:Towie Castle
T:Alexander Walker
C:Alexander Walker
L:1/8
Q:1/4=120
M:2/4
K:F#min
V:1 treble 
V:1
"^Slow with feeling" E | C>F (A/G/).F/.E/ | C>FF>G | B>cB>G | E2 E>G | C>F (A/G/).F/.E/ | C>FF>f | %7
 e>c (c/B/)A/G/ | F2 F>E | C>F (A/G/).F/.E/ | c>F (A/G/).F/.E/ | B,>E (G/F/E/F/) | B>E (G/F/E/F/) | %13
 (C>F)(E>G) | (F>A)(G>f) | e>c (c/B/)A/G/ | (F2 F) || c | f>g (a/g/).f/.e/ | Tf2 c>f | e>gc>e | %21
 B>e G>E | f>g a/g/f/e/ | Tf2 c>f | B/c/e/c/ B/G/E/G/ | F2 F>f | f>g a/g/f/e/ | Tf2 c>f | e>fg>f | %29
 e>B G>E | F/G/A/F/ G/A/B/G/ | A/B/c/A/ B/c/e/B/ | c/f/e/g/ f/c/B/G/ | AF F || %34

